X:1
T:Lobe Den Herren, O Meine Seele
T:Lobe Den Herren, O Meine Seele
T:Johann Anastasius Freylinghausen, 1704
T:Public Domain Courtesy of the Cyber Hymnal™
C:Johann Anastasius Freylinghausen, 1704
Z:Public Domain
Z:Courtesy of the Cyber Hymnal™
%%score ( 1 2 ) ( 3 4 )
L:1/8
Q:1/4=113
M:3/4
K:G
V:1 treble 
V:2 treble 
V:3 bass 
V:4 bass 
V:1
 [DG]2 D2 [EG]2 | G3 [CF] [B,G]2 | A2 B2 [Ec]2 | [DB]4 [DA]2 | [DA]2 [DA]2 [DA]2 | c3 z B [EA]2 | %6
 [DG]4 A2 | [B,G]6 | [DG]2 D2 [EG]2 | G3 [CF] [B,G]2 | [EA]2 [EB]2 [Cc]2 | [DB]4 [DA]2 | %12
 [DA]2 [DA]2 [DB]2 | c3 z B [EA]2 | [DB]4 A2 | [B,G]6 | [DA]2 [DB]2 [^CA]2 | F3 G [DA]2 | %18
 [EG]2 [DF]2 [^CE]2 | [A,D]6 | [B,D]2 [B,D]2 D2 | [EG]4 [B,G]2 | A2 B2 [Ec]2 | [DB]4 [DB]2 | %24
 B2 A2 [B,G]2 | [DA]4 [Cc]2 | [DB]4 A2 | [B,G]6 |] %28
V:2
 x2 D2 x2 | D2 D x3 | D4 x2 | x6 | x6 | C2 D2 x3 | x4 (DC) | x6 | x2 D2 x2 | D2 D x3 | x6 | x6 | %12
 x6 | C2 D2 x3 | x4 (DC) | x6 | x6 | D4 x2 | x6 | x6 | x4 D2 | x6 | D4 x2 | x6 | D4 x2 | x6 | %26
 x4 (DC) | x6 |] %28
V:3
 [G,B,]2 [F,A,]2 [E,B,]2 | B,2 [D,A,]2 [E,G,]2 | [D,F,]2 G,2 [C,G,]2 | G,4 [D,F,]2 | %4
 [F,A,]2 [D,F,]2 G,2 | G,4 [C,G,]2 x | [D,G,]4 [D,F,]2 | [G,,D,]6 | [G,B,]2 [F,A,]2 [E,B,]2 | %9
 B,2 [D,A,]2 [E,G,]2 | [C,A,]2 [B,,^G,]2 [A,,A,]2 | [D,G,]4 [D,F,]2 | [F,A,]2 [D,F,]2 G,2 | %13
 G,4 [C,G,]2 x | [D,G,]4 [D,F,]2 | [G,,D,]6 | [D,F,]2 [G,,G,]2 [A,,E,]2 | [B,,B,]4 [F,,A,]2 | %18
 [G,,B,]2 [A,,A,]2 [A,,G,]2 | [D,F,]6 | [G,,G,]2 G,2 [F,A,]2 | [E,B,]4 [E,G,]2 | %22
 [D,F,]2 G,2 [C,G,]2 | G,4 G,2 | G,2 [D,F,]2 E,2 | [D,F,]4 (E,F,) | G,4 [D,F,]2 | [G,,G,]6 |] %28
V:4
 x6 | (B,,C,) x4 | x2 G,2 x2 | G,4 x2 | x4 (G,F,) | E,2 D,2 x3 | x6 | x6 | x6 | (B,,C,) x4 | x6 | %11
 x6 | x4 (G,F,) | E,2 D,2 x3 | x6 | x6 | x6 | x6 | x6 | x6 | x2 G,2 x2 | x6 | x2 G,2 x2 | G,4 G,2 | %24
 G,2 E,2 x2 | x4 A,,2 | (B,,C,) D,2 x2 | x6 |] %28

